dist/images/nav-talk.svg

<svg width="24" height="24" viewBox="0 0 24 24" fill="none" xmlns="http://www.w3.org/2000/svg">
<path d="M11.9531 1C5.36203 1 0 5.83613 0 11.7812C0 14.2927 0.972281 16.7262 2.74177 18.655C3.09197 20.1311 2.66691 21.6949 1.61222 22.773C1.17122 23.2239 1.48308 24 2.10938 24C4.113 24 6.04453 23.1977 7.47961 21.7827C8.89959 22.3007 10.402 22.5625 11.9531 22.5625C18.5442 22.5625 24 17.7264 24 11.7812C24 5.83613 18.5442 1 11.9531 1ZM6.42188 13.9375C5.25872 13.9375 4.3125 12.9703 4.3125 11.7812C4.3125 10.5922 5.25872 9.625 6.42188 9.625C7.58503 9.625 8.53125 10.5922 8.53125 11.7812C8.53125 12.9703 7.58503 13.9375 6.42188 13.9375ZM12.0469 13.9375C10.8837 13.9375 9.9375 12.9703 9.9375 11.7812C9.9375 10.5922 10.8837 9.625 12.0469 9.625C13.21 9.625 14.1562 10.5922 14.1562 11.7812C14.1562 12.9703 13.21 13.9375 12.0469 13.9375ZM17.6719 13.9375C16.5087 13.9375 15.5625 12.9703 15.5625 11.7812C15.5625 10.5922 16.5087 9.625 17.6719 9.625C18.835 9.625 19.7812 10.5922 19.7812 11.7812C19.7812 12.9703 18.835 13.9375 17.6719 13.9375Z" fill="#D5DFF2"/>
</svg>

<svg width="24" height="24" fill="none" xmlns="http://www.w3.org/2000/svg"><path d="M11.953 1C5.362 1 0 5.836 0 11.781c0 2.512.972 4.945 2.742 6.874a4.436 4.436 0 01-1.13 4.118c-.44.45-.129 1.227.497 1.227a7.665 7.665 0 005.37-2.217 13 13 0 004.474.78C18.544 22.563 24 17.726 24 11.78S18.544 1 11.953 1zM6.422 13.938c-1.163 0-2.11-.968-2.11-2.157s.947-2.156 2.11-2.156c1.163 0 2.11.967 2.11 2.156 0 1.19-.947 2.156-2.11 2.156zm5.625 0c-1.163 0-2.11-.968-2.11-2.157s.947-2.156 2.11-2.156c1.163 0 2.11.967 2.11 2.156 0 1.19-.947 2.156-2.11 2.156zm5.625 0c-1.163 0-2.11-.968-2.11-2.157s.947-2.156 2.11-2.156c1.163 0 2.11.967 2.11 2.156 0 1.19-.947 2.156-2.11 2.156z" fill="#D5DFF2"/></svg>
